X:1272
T:"Dillon's Fancy"     (reel)     1272
C:after Mr. Dillon
B:O'Neill's Music Of Ireland (The 1850) Lyon & Healy, Chicago, 1903 edition
Z:FROM O'NEILL'S TO NOTEWORTHY, FROM NOTEWORTHY TO ABC, MIDI AND .TXT BY VINCE
BRENNAN July 2003 (HTTP://WWW.SOSYOURMOM.COM)
I:abc2nwc
M:C|
L:1/8
K:A
EAAc eA  (3(cBA)|ceae  (3(fga) ed|[1cdef edcA|
(3(Bcd) cA BF ((3{G}FEF):|[2cefg agaf|edcB Aceg||
{b}aece {b}aece|agbg aece|{b}aece {b}aecA|GABc defg|
{b}aece {b}aece|agbg aece|(A/2B/2c/2d/2 e/2f/2g) agaf|edcB ABAF|]
